!!!!SEGMENT: pl-kk--kk-i-277--002-005_anonim--rorate-caeli-alleluia.krn
!!!cenid: 16xx:1087
!!!COM: Anonim
!!!COM-rismid: pe30004985
!!!CDT:
!!!CNT:
!!!OPR: Rorate caeli
!!!OTL: Alleluia
!!!OMV: 005
!!!PDT:
!!!AGN: Sacred
!!!SMS-siglum: PL-Kk
!!!SMS-shelfmark: Kk.I.277
!!!SMS-shelfwork: 002-005 M
!!!SMS-variant:
!!!SMS-altvar:
!!!NIFC-rismid: 1001147188
!!!URL-scan: http://repozytorium.nifc.pl/skany/pl-kk-nut--i-277
!!!ONB-nifc: UWAGA: Introitus Secundi officii od str. 5. części: 1. Rorate caeli (Rorate caeli + Benedixisti + Gloria patri), 2. Kyrie, 3. Et in terra, 4. Tollite portas, 5. Alleluia, 6. Mittit ad virginem, 7. Ave Maria, 8. Sanctus, 9. Agnus Dei, 10. Ecce virgo
**kern	**text	**text
*I"Baſſ(us)	*	*
*I'B	*	*
*clefF4	*	*
*k[]	*	*
*d:	*	*
*M2/1	*	*
*met(C)	*	*
=1-	=1-	=1-
!LO:TX:b:i:t=Miaſto baſſu tenor śpiewać z geſolreut lu	!	!
!LO:TX:a:t=P:problem:inicjał A przed kluczem	!	!
1C	Al-	.
1D	-le-	.
=2-	=2-	=2-
*lig	*	*
1D	-lu-	.
1F	.	.
*Xlig	*	*
=3-	=3-	=3-
*lig	*	*
1F	.	.
1E	.	.
*Xlig	*	*
=4-	=4-	=4-
1D	ia	.
!LO:TX:t=P:problem:kreska pseudotaktowa	!	!
1E	.	.
=5-	=5-	=5-
1F	Al	.
*lig	*	*
1G	.	.
=6-	=6-	=6-
1F	.	.
*Xlig	*	*
*lig	*	*
1G	-le-	.
=7-	=7-	=7-
1E	.	.
*Xlig	*	*
*lig	*	*
1F	.	.
=8-	=8-	=8-
1D	.	.
*Xlig	*	*
1F	.	.
=9-	=9-	=9-
1D	.	.
!LO:LB:g=original	!	!
1C	.	.
=10-	=10-	=10-
1D	-lu-	.
*lig	*	*
1F	-ia	.
=11-	=11-	=11-
1E	.	.
*Xlig	*	*
*	*ij	*
1D	Al-	.
=12-	=12-	=12-
*lig	*	*
1F	-le-	.
1G	.	.
*Xlig	*	*
=13-	=13-	=13-
0A	-lu-	.
=14-	=14-	=14-
*lig	*	*
1G	-ia	.
1F	.	.
*Xlig	*	*
=15-	=15-	=15-
0E	Al-	.
=16-	=16-	=16-
1G	-le-	.
*lig	*	*
1A	-lu-	.
=17-	=17-	=17-
1G	.	.
*Xlig	*	*
1E	-ia	.
=18-	=18-	=18-
*lig	*	*
1F	Al-	.
1D	.	.
*Xlig	*	*
=19-	=19-	=19-
1C	-le-	.
*lig	*	*
1D	-lu-	.
=20-	=20-	=20-
1E	.	.
*Xlig	*	*
1F	-i-	.
=21-	=21-	=21-
0E	-a	.
*	*Xij	*
=22||	=22||	=22||
1F	Pro-	Poſt
1F	-phe-	par-
=23-	=23-	=23-
1D	.	-tu(m)
*lig	*	*
1F	.	.
=24-	=24-	=24-
1D	.	.
*Xlig	*	*
1C	-tae	Vir-
!LO:LB:g=original	!	!
=25-	=25-	=25-
*lig	*	*
1D	ſan-	-go
1E	-cti	.
*Xlig	*	*
=26-	=26-	=26-
1E	prae-	In-
1C	-di-	-vio-
=27-	=27-	=27-
1E	-ca-	.
1G	-ve-	-la-
=28-	=28-	=28-
*lig	*	*
1A	.	.
1F	.	.
*Xlig	*	*
=29-	=29-	=29-
*lig	*	*
1G	.	.
1E	.	.
*Xlig	*	*
=30-	=30-	=30-
1D	.	.
*lig	*	*
1F	.	.
=31-	=31-	=31-
1D	.	.
*Xlig	*	*
!LO:TX:t=P:problem:kreska pseudotaktowa	!	!
1D,<	-runt	-ta
=32-	=32-	=32-
1D	naſ-	per-
1D	-ci	-man-
=33-	=33-	=33-
*lig	*	*
1F	ſal-	.
1E	.	.
*Xlig	*	*
=34-	=34-	=34-
*lig	*	*
1F	-va-	-ſi-
1G	.	.
*Xlig	*	*
=35-	=35-	=35-
*lig	*	*
1F	-to-	-ſti
1E	.	.
*Xlig	*	*
=36-	=36-	=36-
1E,<	-rem	.
1E	de	De-
=37-	=37-	=37-
1G	Vir-	-i
!LO:SIC:v:t=custos A	!	!
1A	-gi-	.
!LO:LB:g=original	!	!
=38-	=38-	=38-
*lig	*	*
1A	-ne	ge-
1c	.	.
*Xlig	*	*
=39-	=39-	=39-
*lig	*	*
1A	.	.
1G	.	.
*Xlig	*	*
=40-	=40-	=40-
1F	.	.
1G	.	.
=41-	=41-	=41-
*lig	*	*
1A	.	.
1G	.	.
*Xlig	*	*
=42-	=42-	=42-
*lig	*	*
1F	.	.
1E	.	.
*Xlig	*	*
=43-	=43-	=43-
1D	.	-ni-
0E	.	-trix
=44-	=44-	=44-
.	.	.
1G	.	.
=45-	=45-	=45-
1A	.	.
*lig	*	*
1c	.	.
=46-	=46-	=46-
1A	.	.
*Xlig	*	*
1G	.	.
=47-	=47-	=47-
*lig	*	*
1F	.	.
1G	.	.
*Xlig	*	*
=48-	=48-	=48-
*lig	*	*
1A	.	.
1G	.	.
*Xlig	*	*
=49-	=49-	=49-
*lig	*	*
1F	.	.
1E	.	.
*Xlig	*	*
=50-	=50-	=50-
1D	.	.
1E	.	.
=51-	=51-	=51-
*lig	*	*
1F	.	.
1E	.	.
*Xlig	*	*
=52-	=52-	=52-
*lig	*	*
1F	.	.
1D	.	.
*Xlig	*	*
=53-	=53-	=53-
1F	.	.
!LO:LB:g=original	!	!
*lig	*	*
1G	.	.
=54-	=54-	=54-
1A	.	.
*Xlig	*	*
*lig	*	*
1A	.	.
=55-	=55-	=55-
1G	.	.
*Xlig	*	*
*lig	*	*
1F	.	.
=56-	=56-	=56-
1E,<	.	.
*Xlig	*	*
1E	Ma-	in-
=57-	=57-	=57-
*lig	*	*
1F	.	-ter-
1D	.	.
*Xlig	*	*
=58-	=58-	=58-
1D,<	-tre	.
1F	ſan-	-ce-
=59-	=59-	=59-
*lig	*	*
1F	-cta	.
1E	.	.
*Xlig	*	*
=60-	=60-	=60-
1C	Ma-	-de
1D	-ri-	.
=61-	=61-	=61-
*lig	*	*
1D	.	pro
1F	.	.
*Xlig	*	*
=62-	=62-	=62-
*lig	*	*
1F	.	no-
1E	.	.
*Xlig	*	*
=63-	=63-	=63-
1D	.	.
[1El	-a	-bis
=64-	=64-	=64-
0E]	.	.
=-	=-	=-
*-	*-	*-
!!!RDF**kern: l = terminal long
!!!RDF**kern: > = above
!!!RDF**kern: < = below
!!!EED: Antoni Szymański
!!!EST: 2021-03-28
!!!ENC: Tomasz Grochalski
!!!END: 2021-03-14
